packages/core/src/svgs/tokens/mono/OGN.svg

<svg width="24" height="24" viewBox="0 0 24 24" fill="none" xmlns="http://www.w3.org/2000/svg">
<path d="M4.29573 6.96121C2.42081 10.6735 3.48327 15.2607 4.29573 16.9983L7.38932 13.8734C7.08308 12.6796 7.14557 10.8736 7.5268 9.38614C7.97678 7.60492 9.52667 5.81751 11.9141 5.78626C13.5952 5.76752 14.7764 6.56122 15.0389 6.96121L4.57071 17.5856C5.00819 18.3168 6.28313 20.1605 8.18928 21.1855C9.98296 22.1479 12.7453 22.1792 14.5139 21.6854C15.9583 21.2101 17.2554 20.3703 18.2803 19.247C19.305 18.1237 20.0226 16.755 20.3637 15.2733C21.2885 11.4547 20.3386 8.02365 19.7012 6.96121L16.6638 10.0548C16.87 11.2422 16.8388 13.9171 16.1389 15.6044C15.4514 17.2919 14.0264 18.2293 11.9141 18.2293C10.8168 18.1695 9.77341 17.7348 8.95798 16.9983L19.395 6.31749C16.8951 2.08021 12.4891 1.79272 10.8954 2.08021C9.48293 2.29809 8.14457 2.85549 6.99503 3.70458C5.84552 4.55365 4.91923 5.66904 4.29573 6.95495V6.96121Z" fill="white"/>
</svg>

<svg xmlns="http://www.w3.org/2000/svg" width="24" height="24" fill="none" viewBox="0 0 24 24">
    <path fill="#fff" d="M4.296 6.961c-1.875 3.713-.813 8.3 0 10.037l3.093-3.125c-.306-1.193-.243-3 .138-4.487.45-1.781 2-3.568 4.387-3.6 1.681-.018 2.862.775 3.125 1.175L4.57 17.586c.437.73 1.712 2.575 3.618 3.6 1.794.962 4.556.993 6.325.5a8.84 8.84 0 0 0 5.85-6.413c.924-3.818-.025-7.25-.663-8.312l-3.037 3.094c.206 1.187.175 3.862-.525 5.55-.688 1.687-2.113 2.624-4.225 2.624A4.8 4.8 0 0 1 8.958 17L19.395 6.316c-2.5-4.237-6.906-4.524-8.5-4.237a8.83 8.83 0 0 0-6.6 4.875z"/>
</svg>
